X:439
T: Der goldene Rosenkranz (5-35), S. 60
N: P0709
O: Lothringen
S: MERKELBACH-PINCK, Angelika: Verklingende Weisen, Bd 5, Kassel 1962]
R: geistliches, religises Lied]
M: 3/4
L: 1/8
K: F
F2 | A2c2A2 | G2F2G2 | F4
A2 | B2c2B2 | A2B2c2 | G4
G2 | c2d2c2 | F4GA | B2c2B2 | G4
Bd | c3BA2 | G2A2G2 | F4

@@@ Tune index: 7989
